X: 185
T:MacDonald's Rant. JaW.184
M:C
L:1/8
Q:150
S:James Winder Ms, Lancashire, 1835-41
R:Reel
O:England
A:Wyresdale,Lancashire
H:1/8
Z:vmp.Chris Partington, Aug 2004
K:D
FA2f/g/ afed|gfed BdBA|FA2f/g/ afed|(e/f/)g (f/g/)a e2d2:|!
|:FA3 F>GAB|G/G/G G2 GABG|FA2B ABAF|GAFd E2D2:|!
|:FA2f/g/ afed|gfed BdBA|FA2f/g/ afed|(e/f/)g (f/g/)a e2d2:|!
|:fa3 f>gaf|g/g/g g2 g>abg|fa2b abaf|gafg e2d2:|]
